icon-themes/breeze_svg/cmd/32/insertcellsright.svg

<svg viewBox="0 0 32 32" xmlns="http://www.w3.org/2000/svg"><path d="m19 8v6 1 3h1v-2.341797l.324219-.277344.445312-.380859 1.166016-1 5.064453-4.3417969v2.6816409l-.326172.28125-1.609375 1.378906-1.166015 1-3.5 3h1.537109l3.5-3 1.03125-.884766.134765-.115234.398438-.341797v.341797 1 1.339844l-.326172.28125-1.609375 1.378906h1.537109l.398438-.341797v.341797h1v-3-1-6h-1v.3398438l-.326172.28125-6.27539 5.3789062-.398438.341797v-.341797-2.341797l.324219-.277344 3.943359-3.380859h-1.535156l-2.732422 2.341797v-2.341797z" fill="#1d99f3"/><path d="m4 4v24h14v-1h-5v-3h5v-1h-5v-3h5v-1h-5v-3h6v-1h-6v-3h6v-1h-6v-3h6 1 7 1v-4zm1 1h7v2h-7zm8 0h6v2h-6zm7 0h7v2h-7zm-15 3h7v3h-7zm0 4h7v3h-7zm0 4h7v3h-7zm14 3v9l9-4zm-14 1h7v3h-7zm0 4h7v3h-7z" fill="#4d4d4d"/></svg>

<svg xmlns="http://www.w3.org/2000/svg" viewBox="0 0 32 32">
 <path 
     style="fill:#1d99f3" 
     d="M 19 8 L 19 14 L 19 15 L 19 18 L 20 18 L 20 15.658203 L 20.324219 15.380859 L 20.769531 15 L 21.935547 14 L 27 9.6582031 L 27 12.339844 L 26.673828 12.621094 L 25.064453 14 L 23.898438 15 L 20.398438 18 L 21.935547 18 L 25.435547 15 L 26.466797 14.115234 L 26.601562 14 L 27 13.658203 L 27 14 L 27 15 L 27 16.339844 L 26.673828 16.621094 L 25.064453 18 L 26.601562 18 L 27 17.658203 L 27 18 L 28 18 L 28 15 L 28 14 L 28 8 L 27 8 L 27 8.3398438 L 26.673828 8.6210938 L 20.398438 14 L 20 14.341797 L 20 14 L 20 11.658203 L 20.324219 11.380859 L 24.267578 8 L 22.732422 8 L 20 10.341797 L 20 8 L 19 8 z "
     />
 <path 
     style="fill:#4d4d4d" 
     d="M 4 4 L 4 28 L 18 28 L 18 27 L 13 27 L 13 24 L 18 24 L 18 23 L 13 23 L 13 20 L 18 20 L 18 19 L 13 19 L 13 16 L 19 16 L 19 15 L 13 15 L 13 12 L 19 12 L 19 11 L 13 11 L 13 8 L 19 8 L 20 8 L 27 8 L 28 8 L 28 4 L 4 4 z M 5 5 L 12 5 L 12 7 L 5 7 L 5 5 z M 13 5 L 19 5 L 19 7 L 13 7 L 13 5 z M 20 5 L 27 5 L 27 7 L 20 7 L 20 5 z M 5 8 L 12 8 L 12 11 L 5 11 L 5 8 z M 5 12 L 12 12 L 12 15 L 5 15 L 5 12 z M 5 16 L 12 16 L 12 19 L 5 19 L 5 16 z M 19 19 L 19 28 L 28 24 L 19 19 z M 5 20 L 12 20 L 12 23 L 5 23 L 5 20 z M 5 24 L 12 24 L 12 27 L 5 27 L 5 24 z "
     />
</svg>
